X:1
T:ຮັກອີ່ຫຼີບໍ່?
T:ເນື້ອຮ້ອງ & ທຳນອງ : ສນອງ ອຸ່ນວົງ ນັກຮ້ອງຕົ້ນສະບັບ : ຈ. ປະຈັກໃຈ
T:1968
T:© studiodavong
C:Sanong OUNVONG
Z:© studiodavong
%%score ( 1 2 )
L:1/8
Q:1/4=110
M:4/4
K:Bb
V:1 treble nm="Piano" snm="Pno."
V:2 treble 
V:1
"^Cha Cha Cha \n(\n)\n" z"_(Sax) ____________________________________________________________________________________________________" FGB DFGF || %1
w: |
"Bb""G" B6 df |"Cm" c3 B"Eb" GD"F"FG |"Bb" B3 f/f/"F" fgdc |:"Bb""^A" B FGB{B} D3 (B/G/) | %5
w: |||* ຮັກ ອີ່ ຫຼີ ບໍ່ ນ້ອງ- *|
"Bb"{G} d4-"Dm" d(d/c/) dG |"Gm" B3 c"Eb" (GB)(GF) |"F" F4 z BBF |"Gm"{F} G3 G GF{F}DF | %9
w: ເອີຍ _ ອ້າຍ- * ຍັງ ບໍ່|ເຄີຍ ຮັກ ໃຜ- * ມາ- *|ກ່ອນ ແມ່ນ ຮັກ ອີ່|ຫຼີ ຄົນ ດີ ຢ່າ ແງ່ ຢ່າ|
"Eb" G3 B (cG)Bc- |"C7" c B2 c d d2 f |"F" c8 ||"F""^B" z FGB{B} D3 (B/G/) |"Bb"{G} d4-"Dm" dcdc | %14
w: ງອນ ຫາ ຄູ່- * ຫຼັບ ນອນ|_ ເປັນ ຄູ່ ຊ້ອນ ຍາມ ນິ|ທຣາ...|ຮັກ ອີ່ ຫຼີ ບໍ່ ນ້ອງ- *|ສາວ _ ຍາມ ນີ້ ເຖິງ|
"Gm" B3 G"Eb" (GB)(GF) |"F" F4 z BBF |"Gm" G3 G GGGB |"F" F3 B G2 Bc- |"Cm" cBGB"F" (c d2) G | %19
w: ຄາວ ຍາມ ໜາວ- * ວຽນ- *|ມາ ແມ່ນ ຮັກ ອີ່|ຫຼີ ວັນ ດີ ຄືນ ດີ ວິ|ວາ ຂັນ ໝາກ ແຫ່ ມາ|_ ສົມ ປຣາ ຖ ນາ- * ດັ່ງ|
"Bb""F" B8 ||"Bb""^C" z2 (fd) f2 c2 |"Dm" d6 D2 |"Gm" F3 G (B G2) G |"Bb"{G} d8 | %24
w: ໃຈ...|ຢ້ານ- * ຮັກ ບໍ່|ຈິງ ບໍ່|ຈິງ ຈຶ່ງ ຮ້ອງ- * ເພງ|ຖາມ|
"Dm" z2 (fd){d} f2 d2 |"Cm" c6 d2 |"Eb6" c3 B c2 (cd) |"F" F8 |"Bb" z2 (fd) f2 c2 |"Dm"{df} d6 B2 | %30
w: ຢ້ານ- * ນ້ອງ ຄົນ|ງາມ ຄົນ|ງາມ ປ່ຽນ ໃຈ ຮັກ- *|ໃໝ່|ຢ້ານ- * ຮັກ ບໍ່|ແທ້ ແນ່ວ|
"Gm"{B} G3 d G2 (Bd) |"Cm" c8 |"F" z2 (fd) f2 c2 |"Gm" d4- df f(d/f/) |"F" c6 (fd) |"Bb""F" f8 || %36
w: ແນ່ ຄິດ ແຕ່ ລວງ- *|ຊາຍ|ຢ້ານ- * ນ້ອງ ກັບ|ກາຍ _ ອ້າຍ ຕ້ອງ ໜາວ- *|ຕາຍ ແນ່- *|ໆ...|
"Bb""^D" z FGB{B} D3 F |"Bb"{F} d4-"Dm" d{d}cdc |"Gm" B3 G"Eb" (GB) G2 |"F"{/B} F4 z BBF | %40
w: ຮັກ ອີ່ ຫຼີ ບໍ່ ຄົນ|ສວຍ _ ອ້າຍ ເສັຽ ຫົວ|ຄວາຍ ກິນ ດອງ- * ກັນ|ແທ້ ແມ່ນ ຮັກ ອີ່|
"Gm" G3 G GFB{B}F |"Eb" G4 z{d} fdc |"F" BDFG d3 c!dacoda! ||1"Bb""F""_(Solo verse A&B)" B8 :|2 %44
w: ຫຼີ ຍິນ ດີ ຈັດ ຫາ ເຖົ້າ|ແກ່ ຂໍ ນຳ ພໍ່|ແມ່ ແຕ່ງ ດອງ ກັນ ແທ້ ດວງ|ໃຈ...|
O"Bb""^E" B8 ||"F" c4- cd/f/ dc |"Bb" B4- B"F"!>!F!>!F!>!F |"Bb" !>!!fermata!B8!fine! |] %48
w: ໃຈ...||||
V:2
 x8 || x8 | x8 | x8 |: x8 | x8 | x8 | x8 | x8 | x8 | x8 | x8 || x8 | x8 | x8 | x8 | x8 | x8 | x8 | %19
 x8 || x8 | x8 | x8 | x8 | x8 | x8 | x8 | x8 | x8 | x8 | x8 | x8 | x8 | x8 | x8 | x8 || x8 | x8 | %38
 x8 | x8 | x8 | x8 | x8 ||1 x8 :|2 %44
 x4"_(Sax) _____________________________________________________________________________" z ddd || %45
 x8 | x8 | x8 |] %48

